icons/svgs/arrow-up-right-from-square-outline.svg

<svg width="24" height="24" viewBox="0 0 24 24" fill="none" xmlns="http://www.w3.org/2000/svg">
<path d="M13.875 2.9375C13.875 2.42969 14.2656 2 14.8125 2H21.0234C21.5703 2 21.9609 2.42969 21.9609 2.9375V9.1875C21.9609 9.73438 21.5703 10.125 21.0234 10.125C20.5156 10.125 20.0859 9.73438 20.0859 9.1875V5.20312L11.375 13.9141C11.0234 14.3047 10.4375 14.3047 10.0859 13.9141C9.69531 13.5625 9.69531 12.9766 10.0859 12.5859L18.7969 3.875H14.8125C14.2656 3.875 13.875 3.48438 13.875 2.9375ZM4.8125 3.25H9.8125C10.3203 3.25 10.75 3.67969 10.75 4.1875C10.75 4.73438 10.3203 5.125 9.8125 5.125H4.8125C4.26562 5.125 3.875 5.55469 3.875 6.0625V19.1875C3.875 19.7344 4.26562 20.125 4.8125 20.125H17.9375C18.4453 20.125 18.875 19.7344 18.875 19.1875V14.1875C18.875 13.6797 19.2656 13.25 19.8125 13.25C20.3203 13.25 20.75 13.6797 20.75 14.1875V19.1875C20.75 20.75 19.4609 22 17.9375 22H4.8125C3.25 22 2 20.75 2 19.1875V6.0625C2 4.53906 3.25 3.25 4.8125 3.25Z" fill="black"/>
</svg>

<svg xmlns="http://www.w3.org/2000/svg" width="24" height="24" fill="currentColor" class="icon-arrow-up-right-from-square-outline" viewBox="0 0 24 24">
  <mask id="a" width="20" height="20" x="2" y="2" maskUnits="userSpaceOnUse" style="mask-type:alpha">
    <path d="M13.875 2.938c0-.508.39-.938.938-.938h6.21c.547 0 .938.43.938.938v6.25c0 .546-.39.937-.938.937a.925.925 0 0 1-.937-.937V5.203l-8.711 8.711a.856.856 0 0 1-1.29 0c-.39-.351-.39-.937 0-1.328l8.712-8.711h-3.985c-.546 0-.937-.39-.937-.937m-9.062.312h5a.95.95 0 0 1 .937.938c0 .546-.43.937-.937.937h-5a.925.925 0 0 0-.938.938v13.125c0 .546.39.937.938.937h13.125c.507 0 .937-.39.937-.937v-5c0-.508.39-.938.938-.938a.95.95 0 0 1 .937.938v5A2.826 2.826 0 0 1 17.938 22H4.813A2.8 2.8 0 0 1 2 19.188V6.063A2.826 2.826 0 0 1 4.813 3.25"/>
  </mask>
  <g mask="url(#a)">
    <path d="M0 0h24v24H0z"/>
  </g>
</svg>
